!!!COM: Vivaldi, Antonio
!!!OTL: Concerto a violino solo, No. 6
!!!XEN: Violin Concerto No. 6
!!!OTP: Il Piacere
!!!OTA: Pleasure
!!!OPR: Il Cimento dell'armonia e dell'inventione
!!!XEN: The Contest of Harmony and Invention
!!!OPS: Opus 8
!!!ONM: No. 6
!!!OMV: Movement 1.
!!!YEC: Copyright 1996, Center for Computer Assisted Research in the Humanities
!!!YEM: Rights to all derivative electronic formats reserved.
!!!YEM: Refer to licensing agreement for important restrictions.
!!!OMD: Allegro
**kern	**kern	**kern	**kern	**kern	**Bnum
*Icello	*Iviola	*Ivioln	*Ivioln	*Ivioln	*Icemba
*Icemba	*	*	*	*	*
*ICstr	*ICstr	*ICstr	*ICstr	*ICstr	*ICklav
*ICklav	*	*	*	*	*
!cello	!viola 	!violino 2	!violino 1	!violino principale	!continuo
!basso continuo	!	!	!	!	!
*clefF4	*clefC3	*clefG2	*clefG2	*clefG2	*
*k[]	*k[]	*k[]	*k[]	*k[]	*k[]
*C:	*C:	*C:	*C:	*C:	*C:
*M4/4	*M4/4	*M4/4	*M4/4	*M4/4	*M4/4
=1-	=1-	=1-	=1-	=1-	=1-
4C/	4g\	4ee\	4cc\	4cc\	.
8r	8r	16r	16r	16r	.
.	.	16ee\LL	16cc\LL	16cc\LL	.
8C/	8g\	16dd\	16b\	16b\	.
.	.	16ee\JJ	16cc\JJ	16cc\JJ	.
8C/L	8c\L	8ee\L	8gg\L	8gg\L	.
8D/	8d\	8ee\	8gg\	8gg\	.
8E/	8e\	8ee\	8gg\	8gg\	.
8D/J	8d\J	8ee\J	8gg\J	8gg\J	.
=2	=2	=2	=2	=2	=2
8C/L	8c\L	8ff\	8aa\	8aa\	6 4
8D/	8d\	4ee\	4gg\	4gg\	.
8E/	8e\	.	.	.	.
8D/J	8d\J	8ee\	8cc\	8cc\	.
8C/L	8c\L	8ff\	8aa\	8aa\	6 4
8D/	8d\	4ee\	4gg\	4gg\	.
8E/	8e\	.	.	.	.
8C/J	8c\J	8ee\	8cc\	8cc\	.
=3	=3	=3	=3	=3	=3
4.F\	4.f\	16ff\LL	16aa\LL	16aa\LL	.
.	.	16gg\	16bb\	16bb\	.
.	.	16ee\	16gg\	16gg\	.
.	.	16ff\JJ	16aa\JJ	16aa\JJ	.
.	.	16dd\LL	16ff\LL	16ff\LL	.
.	.	16ee\	16gg\	16gg\	.
8F#\	8f#\	16cc\	16ee\	16ee\	.
.	.	16dd\JJ	16ff\JJ	16ff\JJ	.
8G\L	8g\L	8b\	8dd\	8dd\	.
8A\	8a\	4b\	4g/	4g/	.
8B\	8b\	.	.	.	.
8A\J	8a\J	8b\	8dd\	8dd\	.
=4	=4	=4	=4	=4	=4
8G\L	8g\L	8cc\	8ee\	8ee\	6 4
8A\	8a\	4b\	4dd\	4dd\	.
8B\	8b\	.	.	.	.
8A\J	8a\J	8b\	8g/	8g/	.
8G\L	8g\L	8cc\	8ee\	8ee\	6 4
8A\	8a\	4b\	4dd\	4dd\	.
8B\	8b\	.	.	.	.
8A\J	8a\J	8b\	8g/	8g/	.
=5	=5	=5	=5	=5	=5
8G/L	8g\L	16b\LL	16g/LL	16g/LL	3
.	.	16cc\	16a/	16a/	.
8D/	8d\	16dd\	16b/	16b/	.
.	.	16ee\JJ	16cc/JJ	16cc/JJ	.
8BB/	8B\	16ff\LL	16dd\LL	16dd\LL	.
.	.	16gg\	16ee\	16ee\	.
8GG/J	8G\J	16aa\	16ff\	16ff\	.
.	.	16bb\JJ	16gg\JJ	16gg\JJ	.
8C/L	8c\L	8ccc\	8ee\	8ee\	.
8D/	8d\	4ee\	4cc\	4cc\	.
8E/	8e\	.	.	.	.
8D/J	8d\J	8ee\	8gg\	8gg\	.
=6	=6	=6	=6	=6	=6
8C/L	8c\L	8gg\	8ccc\	8ccc\	.
8D/	8d\	4ee\	4gg\	4gg\	.
8E/	8e\	.	.	.	.
8D/J	8d\J	8ee\	8gg\	8gg\	.
8C/L	8c\L	8ff\	8aa\	8aa\	6 4
8D/	8d\	4ee\	4gg\	4gg\	.
8E/	8e\	.	.	.	.
8D/J	8d\J	8ee\	8gg\	8gg\	.
=7	=7	=7	=7	=7	=7
8C/L	8c\L	8gg\	8ccc\	8ccc\	3
8D/	8d\	4ee\	4gg\	4gg\	.
8E/	8e\	.	.	.	.
8D/J	8d\J	8ee\	8gg\	8gg\	.
8C/L	8c\L	8ff\	8aa\	8aa\	6 4
8D/	8d\	4ee\	4gg\	4gg\	.
8E/	8e\	.	.	.	.
8C/J	8c\J	8ee\	8gg\	8gg\	.
=8	=8	=8	=8	=8	=8
4.F\	4.f\	16ff\LL	16aa\LL	16aa\LL	.
.	.	16gg\	16bb\	16bb\	.
.	.	16ee\	16gg\	16gg\	.
.	.	16ff\JJ	16aa\JJ	16aa\JJ	.
.	.	16dd\LL	16ff\LL	16ff\LL	.
.	.	16ee\	16gg\	16gg\	.
8F#\	8f#\	16cc\	16ee\	16ee\	.
.	.	16dd\JJ	16ff\JJ	16ff\JJ	.
8G\L	8g\L	8b\	8dd\	8dd\	.
8A\	8a\	4g/	4g/	4g/	.
8G\	8g\	.	.	.	.
8Fn\J	8fn\J	8gg\	8g/	8g/	.
=9	=9	=9	=9	=9	=9
8E\L	8e\L	8gg\	8cc\	8cc\	6
8D\	8d\	4gg\	4b-\	4b-\	b6
8E\	8e\	.	.	.	6 b5
8C\J	8c\J	8ee\	8b-\	8b-\	.
8F\L	8f\L	8cc\	8b-\	8b-\	6 4
8G\	8g\	4cc\	4a/	4a/	.
8A\	8a\	.	.	.	.
8G\J	8g\J	8aa\	8f/	8f/	.
=10	=10	=10	=10	=10	=10
8F#\L	8f#\L	8aa\	8dd\	8dd\	6
8E\	8e\	4aa\	4cc\	4cc\	.
8F#\	8f#\	.	.	.	6 5
8D\J	8d\J	8ff#\	8cc\	8cc\	.
8G\L	8g\L	8dd\	8cc\	8cc\	6 4
8A\	8a\	4dd\	4b\	4b\	.
8B\	8b\	.	.	.	.
8A\J	8a\J	8bb\	8g/	8g/	.
=11	=11	=11	=11	=11	=11
8G#\L	8g#\L	8bb\	8ee\	8ee\	6
8F#\	8f#\	4bb\	4dd\	4dd\	.
8G#\	8g#\	.	.	.	6 5
8E\J	8e\J	8gg#\	8dd\	8dd\	.
8A\L	8a\L	8ee\	8dd\	8dd\	6 4
8B\	8b\	4ee\	4cc\	4cc\	.
8c\	8cc\	.	.	.	.
8B\J	8b\J	8aa\	8a/	8a/	.
=12	=12	=12	=12	=12	=12
8A\L	8a\L	8ccc\	8ff\	8ff\	6
8G\	8g\	4ccc\	4ee\	4ee\	.
8A\	8a\	.	.	.	.
8F\J	8f\J	8aa\	8ee\	8ee\	.
8B\L	8b\L	8ff\	8ee\	8ee\	5 4
8c\	8cc\	4ff\	4dd\	4dd\	.
8d\	8dd\	.	.	.	.
8c\J	8cc\J	8ddd\	8b\	8b\	.
=13	=13	=13	=13	=13	=13
8B\L	8b\L	8ddd\	8gg\	8gg\	6
8A\	8a\	4ddd\	4ff\	4ff\	.
8B\	8b\	.	.	.	6 5
8G\J	8g\J	8bb\	8ff\	8ff\	.
8c\L	8cc\L	8gg\	8ff\	8ff\	5 4
8B\	8b\	4gg\	4ee\	4ee\	.
8c\	8cc\	.	.	.	.
8C\J	8c\J	8ee\	8gg\	8gg\	.
=14	=14	=14	=14	=14	=14
8C/L	8e/L	8gg\L	8ccc\L	8ccc\L	.
8F/	8A/	8e\J	8cc\J	8cc\J	.
8G/	8B/	8d/L	8b/L	8b/L	.
8GG/J	8G/J	8B/J	8d/J	8d/J	.
8C/L	4G/	8c/	8e/	8e/	.
8D/	.	4c/	4e/	4e/	.
8E/	4G/	.	.	.	.
8D/J	.	8e/	8g/	8g/	.
=15	=15	=15	=15	=15	=15
8C/L	8e/L	8g/L	8cc/L	8cc/L	.
8F/	8A/	8e/	8c/	8c/	.
8G/	8B/	8d/	8B/	8B/	.
8GG/J	8G/J	8b/J	8dd/J	8dd/J	.
*	*strophe	*	*	*	*
*	*^	*	*	*	*
*	*S/S	*S/A	*	*	*	*
4C/	4G/	2G/	4cc\	4cc\	4cc\	.
4r	4r	.	4r	4r	8r	.
.	.	.	.	.	8ee\	.
*	*S/fin	*S/fin	*	*	*	*
*	*v	*v	*	*	*	*
*	*S-	*	*	*	*
=16	=16	=16	=16	=16	=16
8C\L	1r	1r	1r	(16gg\LL	.
.	.	.	.	16ee\)	.
8F\	.	.	.	(16aa\	.
.	.	.	.	16ff\JJ)	.
8C\	.	.	.	(16gg\LL	.
.	.	.	.	16ee\)	.
8F\J	.	.	.	(16aa\	.
.	.	.	.	16ff\JJ)	.
8C\L	.	.	.	(16gg\LL	.
.	.	.	.	16ee\)	.
8F\	.	.	.	(16aa\	.
.	.	.	.	16ff\JJ)	.
8C\	.	.	.	(16gg\LL	.
.	.	.	.	16ee\)	.
8F\J	.	.	.	(16aa\	.
.	.	.	.	16ff\JJ)	.
=17	=17	=17	=17	=17	=17
8C/L	8e\L	8ee\	8gg\	8gg\L	.
8D/	8f\	4ee\	4gg\	8cc\J	.
8E/	8g\	.	.	8r	.
8C/J	8e\J	8ee\	8gg\	8gg\	.
8F\L	4c\	4ff\	4aa\	(16aa\LL	.
.	.	.	.	16gg\)	.
8E\	.	.	.	(16ccc\	6
.	.	.	.	16gg\JJ)	.
8F\	4r	4r	4r	(16aa\LL	.
.	.	.	.	16gg\)	.
8E\J	.	.	.	(16ccc\	6
.	.	.	.	16gg\JJ)	.
=18	=18	=18	=18	=18	=18
8F\L	2r	2r	2r	(16aa\LL	.
.	.	.	.	16gg\)	.
8E\	.	.	.	(16ccc\	6
.	.	.	.	16gg\JJ)	.
8D\	.	.	.	8ff\L	.
8C\J	.	.	.	8ee\J	.
8G\L	8g\L	8b\	8dd\	4dd\	.
8C\	8g\	4cc\	4ee\	.	.
8E\	8g\	.	.	8r	.
8C\J	8e\J	8ee\	8gg\	8gg\	.
=19	=19	=19	=19	=19	=19
8F\L	4c\	4ff\	4aa\	(16aa\LL	.
.	.	.	.	16gg\)	.
8E\	.	.	.	(16ccc\	6
.	.	.	.	16gg\JJ)	.
8F\	4r	4r	4r	(16aa\LL	.
.	.	.	.	16gg\)	.
8E\J	.	.	.	(16ccc\	6
.	.	.	.	16gg\JJ)	.
8F\L	2r	2r	2r	(16aa\LL	.
.	.	.	.	16gg\)	.
8E\	.	.	.	(16ccc\	6
.	.	.	.	16gg\JJ)	.
8D\	.	.	.	8ff\L	.
8C\J	.	.	.	8ee\J	.
=20	=20	=20	=20	=20	=20
8G\L	8g\L	8b\	8dd\	4dd\	.
8F\	8g\	4dd\	4ff\	.	.
8G\	8g\	.	.	8r	.
8GG\J	8g\J	8dd\	8ff\	8ff\	.
8C\L	4g\	4cc\	4ee\	(16ee\LL	.
.	.	.	.	16ff\	.
8E\	.	.	.	16gg\	.
.	.	.	.	16aa\JJ)	.
!!  Endpoints of slur corrected in conformity with the following measures.  
8C\	4r	4r	4r	8bb-\L	b7
8E\J	.	.	.	8gg\J	.
=21	=21	=21	=21	=21	=21
8F\L	1r	1r	1r	4.aa\	.
8G\	.	.	.	.	.
8F\	.	.	.	.	.
8E\J	.	.	.	8gg\	.
8D\L	.	.	.	(16ff#\LL	.
.	.	.	.	16gg\	.
8F#\	.	.	.	16aa\	.
.	.	.	.	16bb\JJ)	.
8D\	.	.	.	8ccc\L	7
8F#\J	.	.	.	8aa\J	.
=22	=22	=22	=22	=22	=22
8G\L	1r	1r	1r	4.bb\	.
8A\	.	.	.	.	.
8G\	.	.	.	.	.
8F\J	.	.	.	8aa\	.
8E\L	.	.	.	(16gg#\LL	.
.	.	.	.	16aa\	.
8G#\	.	.	.	16bb\	.
.	.	.	.	16ccc\JJ)	.
8E\	.	.	.	8ddd\L	7
8G#\J	.	.	.	8bb\J	.
=23	=23	=23	=23	=23	=23
8A\L	1r	1r	1r	4.ccc\	.
8B\	.	.	.	.	.
8A\	.	.	.	.	.
8G\J	.	.	.	8bb\	.
8F\L	.	.	.	(16aa\LL	.
.	.	.	.	16bb\	.
8A\	.	.	.	16ccc\	.
.	.	.	.	16ddd\JJ)	.
8c\	.	.	.	8eee\L	.
8A\J	.	.	.	8aa\J	.
=24	=24	=24	=24	=24	=24
8e\L	1r	1r	1r	4.gg#\	#
8d\	.	.	.	.	.
8c\	.	.	.	.	.
8B\J	.	.	.	8aa\	.
8d\L	.	.	.	16bb\LL	6
.	.	.	.	16aa\	.
8c\	.	.	.	16eee\	6
.	.	.	.	16aa\JJ	.
8d\	.	.	.	16bb\LL	6
.	.	.	.	16aa\	.
8c\J	.	.	.	16eee\	6
.	.	.	.	16aa\JJ	.
=25	=25	=25	=25	=25	=25
8d\L	1r	1r	1r	16bb\LL	6
.	.	.	.	16aa\	.
8c\	.	.	.	16eee\	6
.	.	.	.	16aa\JJ	.
8d\	.	.	.	16bb\LL	6
.	.	.	.	16aa\	.
8c\J	.	.	.	16eee\	6
.	.	.	.	16aa\JJ	.
8B\L	.	.	.	4.ddd\	6
8A\	.	.	.	.	.
8G#\	.	.	.	.	5
8E\J	.	.	.	16ccc\LL	6 4
.	.	.	.	16bb\JJ	.
=26	=26	=26	=26	=26	=26
8A/L	2r	2r	2r	8ccc\L	.
8AA/	.	.	.	16bb\L	.
.	.	.	.	16aa\JJ	.
8E/	.	.	.	4bbt\	.
8EE/J	.	.	.	.	.
8A\L	8cc\	8ee\	8aa\	4aa\	.
8B\	4cc\	4ee\	4aa\	.	.
8c\	.	.	.	8r	.
8A\J	8cc\	8ee\	8aa\	8aa\	.
=27	=27	=27	=27	=27	=27
8d\L	4b\	4dd\	4ff\	(16bb\LL	6
.	.	.	.	16aa\)	.
8c\	.	.	.	(16eee\	6
.	.	.	.	16aa\JJ)	.
8d\	4r	4r	4r	16bb\LL	6
.	.	.	.	16aa\	.
8c\J	.	.	.	16eee\	6
.	.	.	.	16aa\JJ	.
8d\L	2r	2r	2r	16bb\LL	6
.	.	.	.	16aa\	.
8c\	.	.	.	16eee\	6
.	.	.	.	16aa\JJ	.
8d\	.	.	.	16bb\LL	6
.	.	.	.	16aa\	.
8c\J	.	.	.	16eee\	6
.	.	.	.	16aa\JJ	.
=28	=28	=28	=28	=28	=28
8B\L	1r	1r	1r	4.ddd\	6
8A\	.	.	.	.	.
8G#\	.	.	.	.	5
8E\J	.	.	.	16ccc\LL	6 4
.	.	.	.	16bb\JJ	.
8A/L	.	.	.	8ccc\L	.
8AA/	.	.	.	16bb\L	.
.	.	.	.	16aa\JJ	.
8E/	.	.	.	4bbt\	.
8EE/J	.	.	.	.	.
=29	=29	=29	=29	=29	=29
4AA/	4e\	4a/	4cc\	4aa\	.
8r	8r	16r	16r	16r	.
.	.	16a/LL	16cc\LL	16cc\LL	.
8AA/	8e\	16g#/	16b\	16b\	.
.	.	16a/JJ	16cc\JJ	16cc\JJ	.
8AA/L	8A/L	8cc\L	8ee\L	8ee\L	.
8BB/	8B/	8cc\	8ee\	8ee\	.
8C/	8c/	8cc\	8ee\	8ee\	.
8BB/J	8B/J	8cc\J	8ee\J	8ee\J	.
=30	=30	=30	=30	=30	=30
8AA/L	8A/L	8dd\	8ff\	8ff\	6 4
8BB/	8B/	4cc\	4ee\	4ee\	.
8C/	8c/	.	.	.	.
8BB/J	8B/J	8cc\	8a/	8a/	.
8AA/L	8A/L	8dd\	8ff\	8ff\	6 4
8BB/	8B/	4cc\	4ee\	4ee\	.
8C/	8c/	.	.	.	.
8AA/J	8A/J	8cc\	8a/	8a/	.
=31	=31	=31	=31	=31	=31
4.D\	4.d\	16dd\LL	16ff\LL	16ff\LL	.
.	.	16ee\	16gg\	16gg\	.
.	.	16cc\	16ee\	16ee\	.
.	.	16dd\JJ	16ff\JJ	16ff\JJ	.
.	.	16b\LL	16dd\LL	16dd\LL	.
.	.	16cc\	16ee\	16ee\	.
8D#\	8d#\	16a\	16cc\	16cc\	.
.	.	16b\JJ	16dd\JJ	16dd\JJ	.
8E\L	8e\L	8g#/	8b\	8b\	#
8F#\	8f#\	4g#/	4e/	4e/	.
8G#\	8g#\	.	.	.	.
8F#\J	8f#\J	8g#/	8b\	8b\	.
=32	=32	=32	=32	=32	=32
8E\L	8e\L	8a/	8cc\	8cc\	6 4
8F#\	8f#\	4g#/	4b\	4b\	.
8G#\	8g#\	.	.	.	.
8F#\J	8f#\J	8g#/	8e/	8e/	.
8E\L	8e\L	8a/	8cc\	8cc\	6 4
8F#\	8f#\	4g#/	4b\	4b\	.
8G#\	8g#\	.	.	.	.
8F#\J	8f#\J	8g#/	8e/	8e/	.
=33	=33	=33	=33	=33	=33
8E/L	8e/L	16g#/LL	16e/LL	16e/LL	#
.	.	16a/	16f#/	16f#/	.
*	*	*	*strophe	*	*
*	*	*	*^	*	*
*	*	*	*S/S	*S/A	*	*
8BB/	8B/	16b/	16g#/	16g/	16g#/	.
.	.	16cc/JJ	16a/JJ	16a/JJ	16a/JJ	.
*	*	*	*S/fin	*S/fin	*	*
*	*	*	*v	*v	*	*
*	*	*	*S-	*	*
8GG#/	8G#/	16dd\LL	16b\LL	16b\LL	.
.	.	16ee\	16cc\	16cc\	.
8EE/J	8E/J	16ff#\	16dd\	16dd\	.
.	.	16gg#\JJ	16ee\JJ	16ee\JJ	.
8AA/L	8A/L	8ee\	8cc\	8cc\	.
8BB/	8B/	4ee\	4aa\	4aa\	.
8C/	8c/	.	.	.	.
8BB/J	8B/J	8cc\	8ee\	8ee\	.
=34	=34	=34	=34	=34	=34
8AA/L	8c/L	8ee/L	8aa\L	8aa\L	.
8D/	8A/	8c/J	8a\J	8a\J	.
8E/	8E/	8B/L	8g#/L	8g#/L	#
8EE/J	8E/J	8G#/J	8B/J	8B/J	.
*	*strophe	*	*	*	*
*	*^	*	*	*	*
*	*S/S	*S/A	*	*	*	*
8AA/L	8E/	4E/	8A/	8c/	8c/	.
8BB/	4E/	.	4A/	4c/	4c/	.
8C/	.	8E/	.	.	.	.
8BB/J	8E/	8c/	8e/	8e/	.	.
*	*S/fin	*S/fin	*	*	*	*
*	*v	*v	*	*	*	*
*	*S-	*	*	*	*
=35	=35	=35	=35	=35	=35
8AA/L	8c/L	8e/L	8a/L	8a/L	.
8D/	8A/	8c/	8A/	8A/	.
8E/	8E/	8B/	8G#/	8G#/	#
8EE/J	8E/J	8g#/J	8b/J	8b/J	.
8AA\L	4E/	4a/	4a/	16a\LL	.
.	.	.	.	16aa\	.
8A\	.	.	.	16cc\	.
.	.	.	.	16aa\JJ	.
8G\	4r	4r	4r	16b\LL	.
.	.	.	.	16gg\	.
8F\J	.	.	.	16a\	.
.	.	.	.	16ff\JJ	.
=36	=36	=36	=36	=36	=36
8E/L	1r	1r	1r	16g/LL	.
.	.	.	.	16ee/	.
8D/	.	.	.	16f/	.
.	.	.	.	16dd/JJ	.
8C/	.	.	.	16e/LL	.
.	.	.	.	16cc/	.
8BB/J	.	.	.	16d/	.
.	.	.	.	16b/JJ	.
8AA/L	.	.	.	16c/LL	.
.	.	.	.	16a/	.
8GG/J	.	.	.	16B/	.
.	.	.	.	16g/JJ	.
4FF/	.	.	.	16A/LL	.
.	.	.	.	16B/	.
.	.	.	.	16c/	.
.	.	.	.	16d/JJ	.
=37	=37	=37	=37	=37	=37
8EE\L	1r	1r	1r	4e/	.
8E\	.	.	.	.	.
8G#\	.	.	.	8r	.
8F#\J	.	.	.	8bb\	.
8E\L	.	.	.	16eee\LL	.
.	.	.	.	16bb\	.
8F#\	.	.	.	16ee\	.
.	.	.	.	16bb\JJ	.
8G#\	.	.	.	16eee\LL	.
.	.	.	.	16ddd\	.
8E\J	.	.	.	16ccc\	.
.	.	.	.	16bb\JJ	.
=38	=38	=38	=38	=38	=38
4A\	1r	1r	1r	16ccc\LL	.
.	.	.	.	16ee\	.
.	.	.	.	16a\	.
.	.	.	.	16aa\JJ	.
4r	.	.	.	16ddd\LL	.
.	.	.	.	16ccc\	.
.	.	.	.	16bb\	.
.	.	.	.	16aa\JJ	.
4F\	.	.	.	16ddd\LL	.
.	.	.	.	16aa\	.
.	.	.	.	16dd\	.
.	.	.	.	16aa\JJ	.
4r	.	.	.	16ddd\LL	.
.	.	.	.	16ccc\	.
.	.	.	.	16bb\	.
.	.	.	.	16aa\JJ	.
=39	=39	=39	=39	=39	=39
4G\	1r	1r	1r	16bb\LL	.
.	.	.	.	16dd\	.
.	.	.	.	16g\	.
.	.	.	.	16gg\JJ	.
4r	.	.	.	16ccc\LL	.
.	.	.	.	16bb\	.
.	.	.	.	16aa\	.
.	.	.	.	16gg\JJ	.
4E\	.	.	.	16ccc\LL	6
.	.	.	.	16gg\	.
.	.	.	.	16cc\	.
.	.	.	.	16gg\JJ	.
4r	.	.	.	16ccc\LL	.
.	.	.	.	16bb\	.
.	.	.	.	16aa\	.
.	.	.	.	16gg\JJ	.
=40	=40	=40	=40	=40	=40
4F\	1r	1r	1r	16aa\LL	.
.	.	.	.	16cc\	.
.	.	.	.	16f\	.
.	.	.	.	16ff\JJ	.
4r	.	.	.	16bb\LL	.
.	.	.	.	16aa\	.
.	.	.	.	16gg\	.
.	.	.	.	16ff\JJ	.
4GG#/	.	.	.	16ee\LL	6
.	.	.	.	16b\	.
.	.	.	.	16g#\	.
.	.	.	.	16ff\JJ	.
4r	.	.	.	16ee\LL	.
.	.	.	.	16dd\	.
.	.	.	.	16cc#\	.
.	.	.	.	16b\JJ	.
=41	=41	=41	=41	=41	=41
4AA/	1r	1r	1r	16cc#/LL	#
*	*	*	*	*strophe	*
*	*	*	*	*^	*
*	*	*	*	*S/S	*S/A	*
.	.	.	.	16e/	16g/	.
*	*	*	*	*S/fin	*S/fin	*
*	*	*	*	*v	*v	*
*	*	*	*	*S-	*
.	.	.	.	16A/	.
.	.	.	.	16ee/JJ	.
4r	.	.	.	16dd\LL	.
.	.	.	.	16cc#\	.
.	.	.	.	16b\	.
.	.	.	.	16a\JJ	.
4D\	.	.	.	16ff\LL	.
.	.	.	.	16a\	.
.	.	.	.	16d\	.
.	.	.	.	16ff\JJ	.
4r	.	.	.	16dd\LL	.
.	.	.	.	16cc#\	.
.	.	.	.	16b\	.
.	.	.	.	16a\JJ	.
=42	=42	=42	=42	=42	=42
4G#\	1r	1r	1r	16ee\LL	6
.	.	.	.	16b\	.
.	.	.	.	16g#\	.
.	.	.	.	16bb\JJ	.
4r	.	.	.	16gg#\LL	.
.	.	.	.	16ffn\	.
.	.	.	.	16ee\	.
.	.	.	.	16dd\JJ	.
4A\	.	.	.	16cc/LL	.
.	.	.	.	16e/	.
.	.	.	.	16A/	.
.	.	.	.	16ee/JJ	.
4r	.	.	.	16aa\LL	.
*	*	*	*	*strophe	*
*	*	*	*	*^	*
*	*	*	*	*S/S	*S/A	*
.	.	.	.	16ggn\	16gg#\	.
*	*	*	*	*S/fin	*S/fin	*
*	*	*	*	*v	*v	*
*	*	*	*	*S-	*
.	.	.	.	16ff#\	.
.	.	.	.	16ee\JJ	.
=43	=43	=43	=43	=43	=43
4B\	1r	1r	1r	16dd#/LL	#
.	.	.	.	16f#/	.
.	.	.	.	16B/	.
.	.	.	.	16ff#/JJ	.
4r	.	.	.	16bb\LL	.
.	.	.	.	16aa\	.
.	.	.	.	16gg\	.
.	.	.	.	16ff#\JJ	.
4E\	.	.	.	16gg\LL	.
.	.	.	.	16b\	.
.	.	.	.	16e\	.
.	.	.	.	16ee\JJ	.
4r	.	.	.	(16gg\LL	.
.	.	.	.	16ff#\	.
.	.	.	.	16ee\)	.
.	.	.	.	16bb\JJ	.
=44	=44	=44	=44	=44	=44
4E\	1r	1r	1r	(16gg\LL	.
.	.	.	.	16ff#\	.
.	.	.	.	16ee\)	.
.	.	.	.	16bb\JJ	.
4E\	.	.	.	(16gg\LL	.
.	.	.	.	16ff#\	.
.	.	.	.	16ee\)	.
.	.	.	.	16bb\JJ	.
4A\	.	.	.	(16cc\LL	.
.	.	.	.	16b\	.
.	.	.	.	16a\)	.
.	.	.	.	16aa\JJ	.
4A\	.	.	.	(16cc\LL	.
.	.	.	.	16b\	.
.	.	.	.	16a\)	.
.	.	.	.	16aa\JJ	.
=45	=45	=45	=45	=45	=45
8BB/L	1r	1r	1r	16aa\LL	7 #
.	.	.	.	16b\	.
8C#/	.	.	.	16aa\	.
.	.	.	.	16b\JJ	.
8D#/	.	.	.	16aa\LL	.
.	.	.	.	16b\	.
8BB/J	.	.	.	16gg\	.
.	.	.	.	16ff#\JJ	.
8E/L	.	.	.	16gg\LL	.
.	.	.	.	16b\	.
8EE/	.	.	.	16ff#\	.
.	.	.	.	16ee\JJ	.
8B/	.	.	.	4ff#t\	#
8BB/J	.	.	.	.	.
=46	=46	=46	=46	=46	=46
4E\	4b\	4gg\	4ee\	4ee\	.
8r	8r	16r	16r	16r	.
.	.	16gg\LL	16ee\LL	16ee\LL	.
8E\	8b\	16ff#\	16dd#\	16dd#\	.
.	.	16gg\JJ	16ee\JJ	16ee\JJ	.
8E\L	8e\L	8gg\L	8bb\L	8bb\L	.
8F#\	8f#\	8gg\	8bb\	8bb\	.
8G\	8g\	8gg\	8bb\	8bb\	.
8F#\J	8f#\J	8gg\J	8bb\J	8bb\J	.
=47	=47	=47	=47	=47	=47
8E\L	8e\L	8aa\	8ccc\	8ccc\	6 4
8F#\	8f#\	4gg\	4bb\	4bb\	.
8G\	8g\	.	.	.	.
8F#\J	8f#\J	8gg\	8ee\	8ee\	.
8E\L	8e\L	8aa\	8ccc\	8ccc\	6 4
8F#\	8f#\	4gg\	4bb\	4bb\	.
8G\	8g\	.	.	.	.
8E\J	8e\J	8gg\	8ee\	8ee\	.
=48	=48	=48	=48	=48	=48
4.AA/	4.A/	16aa\LL	16ccc\LL	16ccc\LL	.
.	.	16bb\	16ddd\	16ddd\	.
.	.	16gg\	16bb\	16bb\	.
.	.	16aa\JJ	16ccc\JJ	16ccc\JJ	.
.	.	16ff#\LL	16aa\LL	16aa\LL	.
.	.	16gg\	16bb\	16bb\	.
8AA#/	8A#/	16ee\	16gg\	16gg\	.
.	.	16ff#\JJ	16aa\JJ	16aa\JJ	.
8BB/L	8B\L	8dd#\	8ff#\	8ff#\	.
8C#/	8c#\	4dd#\	4b\	4b\	.
8D#/	8d#\	.	.	.	.
8C#/J	8c#\J	8dd#\	8ff#\	8ff#\	.
=49	=49	=49	=49	=49	=49
8BB/L	8B\L	8ee\	8gg\	8gg\	6 4
8C#/	8c#\	4dd#\	4ff#\	4ff#\	.
8D#/	8d#\	.	.	.	.
8C#/J	8c#\J	8dd#\	8b\	8b\	.
8BB/L	8B\L	8ee\	8gg\	8gg\	6 4
8C#/	8c#\	4dd#\	4ff#\	4ff#\	.
8D#/	8d#\	.	.	.	.
8C#/J	8c#\J	8dd#\	8b\	8b\	.
=50	=50	=50	=50	=50	=50
8BB/L	8B\L	8ff#\	8aa\	8aa\	7 #
8C#/	8c#\	4dd#\	4ff#\	4ff#\	.
8D#/	8d#\	.	.	.	.
8BB/J	8B\J	8ff#\	8aa\	8aa\	.
8E\L	8e\L	8ee\	8gg\	8gg\	.
8F#\	8f#\	4b\	4ee\	4ee\	.
8G\	8g\	.	.	.	.
8E\J	8e\J	8ee\	8gg\	8gg\	.
=51	=51	=51	=51	=51	=51
4B\	4b\	8dd#\	8ff#\	8ff#\	#
.	.	4b\	4dd#\	4dd#\	.
4BB/	4B/	.	.	.	.
.	.	8dd#\	8ff#\	8ff#\	.
4E\	4e\	8ee\	8ee\	16ee\LL	.
.	.	.	.	16bb\	.
.	.	4g/	4b\	16bb\	.
.	.	.	.	16eee\JJ	.
4r	4r	.	.	16eee\LL	.
.	.	.	.	16bb\	.
.	.	8g/	8b\	16bb\	.
.	.	.	.	16eee\JJ	.
=52	=52	=52	=52	=52	=52
1r	1r	8g/	8b\	16eee\LL	.
.	.	.	.	16bb\	.
.	.	4g/	4b\	16bb\	.
.	.	.	.	16eee\JJ	.
.	.	.	.	16eee\LL	.
.	.	.	.	16bb\	.
.	.	8g/	8b\	16bb\	.
.	.	.	.	16eee\JJ	.
.	.	8a/	8cc#\	16ccc#\LL	.
.	.	.	.	16ccc#\	.
.	.	4a/	4cc#\	16ccc#\	.
.	.	.	.	16fff#\JJ	.
.	.	.	.	16fff#\LL	.
.	.	.	.	16ccc#\	.
.	.	8a/	8cc#\	16ccc#\	.
.	.	.	.	16fff#\JJ	.
=53	=53	=53	=53	=53	=53
1r	1r	8a/	8cc#\	16fff#\LL	.
.	.	.	.	16ccc#\	.
.	.	4a/	4cc#\	16ccc#\	.
.	.	.	.	16fff#\JJ	.
.	.	.	.	16fff#\LL	.
.	.	.	.	16ccc#\	.
.	.	8a/	8cc#\	16ccc#\	.
.	.	.	.	16fff#\JJ	.
.	.	8b\	8dd#\	16ddd#\LL	.
.	.	.	.	16ddd#\	.
.	.	4b\	4dd#\	16ddd#\	.
.	.	.	.	16ggg\JJ	.
.	.	.	.	16ggg\LL	.
.	.	.	.	16ddd#\	.
.	.	8b\	8dd#\	16ddd#\	.
.	.	.	.	16ggg\JJ	.
=54	=54	=54	=54	=54	=54
1r	1r	8b\	8dd#\	16ggg\LL	.
.	.	.	.	16ddd#\	.
.	.	4b\	4dd#\	16ddd#\	.
.	.	.	.	16ggg\JJ	.
.	.	.	.	16ggg\LL	.
.	.	.	.	16ddd#\	.
.	.	8b\	8dd#\	16ddd#\	.
.	.	.	.	16ggg\JJ	.
.	.	8cc\	8ee\	16eee\LL	.
.	.	.	.	16eee\	.
.	.	4cc\	4ee\	16eee\	.
.	.	.	.	16aaa\JJ	.
.	.	.	.	16aaa\LL	.
.	.	.	.	16eee\	.
.	.	8cc\	8ee\	16eee\	.
.	.	.	.	16aaa\JJ	.
=55	=55	=55	=55	=55	=55
1r	1r	8cc#\	8ee\	16aaa\LL	.
.	.	.	.	16eee\	.
.	.	4cc#\	4ee\	16eee\	.
.	.	.	.	16aaa\JJ	.
.	.	.	.	16aaa\LL	.
.	.	.	.	16eee\	.
.	.	8cc#\	8ee\	16eee\	.
.	.	.	.	16aaa\JJ	.
.	.	8dd\	8ff#\	16fff#\LL	.
.	.	.	.	16fff#\	.
.	.	4dd\	4ff#\	16fff#\	.
.	.	.	.	16bbb\JJ	.
.	.	.	.	16bbb\LL	.
.	.	.	.	16fff#\	.
.	.	8dd\	8ff#\	16fff#\	.
.	.	.	.	16bbb\JJ	.
=56	=56	=56	=56	=56	=56
1r	1r	8dd#\	8ff#\	16bbb\LL	.
.	.	.	.	16fff#\	.
.	.	4dd#\	4ff#\	16fff#\	.
.	.	.	.	16bbb\JJ	.
.	.	.	.	16bbb\LL	.
.	.	.	.	16fff#\	.
.	.	8dd#\	8ff#\	16fff#\	.
.	.	.	.	16bbb\JJ	.
.	.	4ee\	4gg\	16ggg\LL	.
.	.	.	.	16aaa\	.
.	.	.	.	16ggg\	.
.	.	.	.	16aaa\JJ	.
.	.	4r	4r	16ggg\LL	.
.	.	.	.	16aaa\	.
.	.	.	.	16ggg\	.
.	.	.	.	16aaa\JJ	.
=57	=57	=57	=57	=57	=57
8r	1r	1r	1r	16ggg\LL	.
.	.	.	.	16bb\	.
8E\L	.	.	.	16bb\	.
.	.	.	.	16ggg\JJ	.
8G\	.	.	.	16ggg\LL	.
.	.	.	.	16aaa\	.
8E\J	.	.	.	16ggg\	.
.	.	.	.	16aaa\JJ	.
8r	.	.	.	16fff#\LL	.
.	.	.	.	16aa\	.
8D\L	.	.	.	16aa\	#
.	.	.	.	16fff#\JJ	.
8F#\	.	.	.	16fff#\LL	.
.	.	.	.	16ggg\	.
8D\J	.	.	.	16fff#\	.
.	.	.	.	16ggg\JJ	.
=58	=58	=58	=58	=58	=58
8r	1r	1r	1r	16eee\LL	.
.	.	.	.	16gg\	.
8C/L	.	.	.	16gg\	.
.	.	.	.	16eee\JJ	.
8E/	.	.	.	16eee\LL	.
.	.	.	.	16fff#\	.
8C/J	.	.	.	16eee\	.
.	.	.	.	16fff#\JJ	.
8r	.	.	.	16ddd#\LL	.
.	.	.	.	16ff#\	.
8BB/L	.	.	.	16ff#\	#
.	.	.	.	16ddd#\JJ	.
*strophe	*	*	*	*	*
*^	*	*	*	*	*
*S/S	*S/A	*	*	*	*	*
8D#/	8D/	.	.	.	16ddd#\LL	.
.	.	.	.	.	16eee\	.
*S/fin	*S/fin	*	*	*	*	*
*v	*v	*	*	*	*	*
*S-	*	*	*	*	*
8BB/J	.	.	.	16ddd#\	.
.	.	.	.	16eee\JJ	.
=59	=59	=59	=59	=59	=59
8r	1r	1r	1r	16ccc\LL	.
.	.	.	.	16ee\	.
8A\L	.	.	.	16ee\	.
.	.	.	.	16ccc\JJ	.
8c\	.	.	.	16ccc\LL	.
.	.	.	.	16ddd\	.
8A\J	.	.	.	16ccc\	.
.	.	.	.	16ddd\JJ	.
8r	.	.	.	16bb\LL	.
.	.	.	.	16dd#\	.
8BB/L	.	.	.	16dd#\	.
.	.	.	.	16bb\JJ	.
8D#/	.	.	.	16bb\LL	.
.	.	.	.	16ccc\	.
8BB/J	.	.	.	16bb\	.
.	.	.	.	16ccc\JJ	.
=60	=60	=60	=60	=60	=60
8r	1r	1r	1r	16aa\LL	.
.	.	.	.	16dd#\	.
8BB/L	.	.	.	16dd#\	7
.	.	.	.	16aa\JJ	.
8D#/	.	.	.	16aa\LL	.
.	.	.	.	16bb\	.
8BB/J	.	.	.	16aa\	.
.	.	.	.	16bb\JJ	.
8r	.	.	.	16gg\LL	.
.	.	.	.	16ee\	.
8e\L	.	.	.	16ee\	.
.	.	.	.	16gg\JJ	.
8E\	.	.	.	16gg\LL	.
.	.	.	.	16aa\	.
8EE\J	.	.	.	16gg\	.
.	.	.	.	16aa\JJ	.
=61	=61	=61	=61	=61	=61
8r	1r	1r	1r	16gg\LL	.
.	.	.	.	16a#\	.
8F#\L	.	.	.	16a#\	#
.	.	.	.	16gg\JJ	.
8A#\	.	.	.	16ff#\LL	.
.	.	.	.	16gg\	.
8F#\J	.	.	.	16ff#\	.
.	.	.	.	16ee\JJ	.
8r	.	.	.	16dd\LL	.
.	.	.	.	16b\	.
8d\L	.	.	.	16b\	.
.	.	.	.	16dd\JJ	.
8B\	.	.	.	16dd\LL	.
.	.	.	.	16ee\	.
8BB\J	.	.	.	16dd\	.
.	.	.	.	16ee\JJ	.
=62	=62	=62	=62	=62	=62
8r	1r	1r	1r	16dd\LL	.
.	.	.	.	16g#\	.
8E\L	.	.	.	16g#\	#
.	.	.	.	16dd\JJ	.
8G#\	.	.	.	16dd\LL	.
.	.	.	.	16ee\	.
8E\J	.	.	.	16dd\	.
.	.	.	.	16ee\JJ	.
8r	.	.	.	16cc\LL	.
.	.	.	.	16a\	.
8c\L	.	.	.	16a\	.
.	.	.	.	16cc\JJ	.
8A\	.	.	.	16cc\LL	.
.	.	.	.	16dd\	.
8AA\J	.	.	.	16cc\	.
.	.	.	.	16dd\JJ	.
=63	=63	=63	=63	=63	=63
8r	1r	1r	1r	16cc/LL	.
.	.	.	.	16f#/	.
8D\L	.	.	.	16f#/	#
.	.	.	.	16cc/JJ	.
8F#\	.	.	.	16cc\LL	.
.	.	.	.	16dd\	.
8D\J	.	.	.	16cc\	.
.	.	.	.	16dd\JJ	.
8r	.	.	.	16b\LL	.
.	.	.	.	16g\	.
8B\L	.	.	.	16g\	.
.	.	.	.	16ff\JJ	.
8G\	.	.	.	16ff\LL	7
.	.	.	.	16gg\	.
8GG\J	.	.	.	16ff\	.
.	.	.	.	16gg\JJ	.
=64	=64	=64	=64	=64	=64
8r	2r	2r	2r	16ff\LL	.
.	.	.	.	16b\	.
8G\L	.	.	.	16b\	7
.	.	.	.	16ff\JJ	.
8B\	.	.	.	16ff\LL	.
.	.	.	.	16gg\	.
8G\J	.	.	.	16ff\	.
.	.	.	.	16gg\JJ	.
4C/	4g\	4ee\	4cc\	4ee\	.
8r	8r	16r	16r	16r	.
.	.	16ee\LL	16cc\LL	16cc\LL	.
8C/	8g\	16dd\	16b\	16b\	.
.	.	16ee\JJ	16cc\JJ	16cc\JJ	.
=65	=65	=65	=65	=65	=65
8C/L	8c\L	8ee\L	8gg\L	8gg\L	.
8D/	8d\	8ee\	8gg\	8gg\	.
8E/	8e\	8ee\	8gg\	8gg\	.
8D/J	8d\J	8ee\J	8gg\J	8gg\J	.
8C/L	8c\L	8ff\	8aa\	8aa\	6 4
8D/	8d\	4ee\	4gg\	4gg\	.
8E/	8e\	.	.	.	.
8D/J	8d\J	8ee\	8cc\	8cc\	.
=66	=66	=66	=66	=66	=66
8C/L	8c\L	8ff\	8aa\	8aa\	6 4
8D/	8d\	4ee\	4gg\	4gg\	.
8E/	8e\	.	.	.	.
*	*strophe	*	*	*	*
*	*^	*	*	*	*
*	*S/S	*S/A	*	*	*	*
8C/J	8c\J	8B\J	8ee\	8cc\	8cc\	.
*	*S/fin	*S/fin	*	*	*	*
*	*v	*v	*	*	*	*
*	*S-	*	*	*	*
4.F\	4.f\	16ff\LL	16aa\LL	16aa\LL	.
.	.	16gg\	16bb\	16bb\	.
.	.	16ee\	16gg\	16gg\	.
.	.	16ff\JJ	16aa\JJ	16aa\JJ	.
.	.	16dd\LL	16ff\LL	16ff\LL	.
.	.	16ee\	16gg\	16gg\	.
8F#\	8f#\	16cc\	16ee\	16ee\	.
.	.	16dd\JJ	16ff\JJ	16ff\JJ	.
=67	=67	=67	=67	=67	=67
! Tasto solo	!	!	!	!	!
[1G\	4g\	4b\	4dd\	16dd/LL	.
.	.	.	.	16g/	.
.	.	.	.	16g/	.
.	.	.	.	16b/JJ	.
.	4r	4r	4r	16b\LL	.
.	.	.	.	16cc\	.
.	.	.	.	16b\	.
.	.	.	.	16cc\JJ	.
.	2r	2r	2r	16b/LL	.
.	.	.	.	16g/	.
.	.	.	.	16g/	.
.	.	.	.	16b/JJ	.
.	.	.	.	16b\LL	.
.	.	.	.	16cc\	.
.	.	.	.	16b\	.
.	.	.	.	16dd\JJ	.
=68	=68	=68	=68	=68	=68
1G_\	1r	1r	1r	16cc/LL	.
.	.	.	.	16g/	.
.	.	.	.	16g/	.
.	.	.	.	16cc/JJ	.
.	.	.	.	16cc\LL	.
.	.	.	.	16dd\	.
.	.	.	.	16cc\	.
.	.	.	.	16dd\JJ	.
.	.	.	.	16cc/LL	.
.	.	.	.	16g/	.
.	.	.	.	16g/	.
.	.	.	.	16cc/JJ	.
.	.	.	.	16cc\LL	.
.	.	.	.	16dd\	.
.	.	.	.	16cc\	.
.	.	.	.	16ee\JJ	.
=69	=69	=69	=69	=69	=69
1G_\	1r	1r	1r	16dd\LL	.
.	.	.	.	16g\	.
.	.	.	.	16g\	.
.	.	.	.	16dd\JJ	.
.	.	.	.	16dd\LL	.
.	.	.	.	16ee\	.
.	.	.	.	16dd\	.
.	.	.	.	16ee\JJ	.
.	.	.	.	16dd\LL	.
.	.	.	.	16g\	.
.	.	.	.	16g\	.
.	.	.	.	16dd\JJ	.
.	.	.	.	16dd\LL	.
.	.	.	.	16ee\	.
.	.	.	.	16dd\	.
.	.	.	.	16ff\JJ	.
=70	=70	=70	=70	=70	=70
1G_\	1r	1r	1r	16ee\LL	.
.	.	.	.	16g\	.
.	.	.	.	16g\	.
.	.	.	.	16ee\JJ	.
.	.	.	.	16ee\LL	.
.	.	.	.	16ff\	.
.	.	.	.	16ee\	.
.	.	.	.	16ff\JJ	.
.	.	.	.	16ee\LL	.
.	.	.	.	16g\	.
.	.	.	.	16g\	.
.	.	.	.	16ee\JJ	.
.	.	.	.	16ee\LL	.
.	.	.	.	16ff\	.
.	.	.	.	16ee\	.
.	.	.	.	16gg\JJ	.
=71	=71	=71	=71	=71	=71
1G\]	1r	1r	1r	16ff\LL	.
.	.	.	.	16g\	.
.	.	.	.	16g\	.
.	.	.	.	16ff\JJ	.
.	.	.	.	16ff\LL	.
.	.	.	.	16gg\	.
.	.	.	.	16ff\	.
.	.	.	.	16gg\JJ	.
.	.	.	.	16ff\LL	.
.	.	.	.	16g\	.
.	.	.	.	16g\	.
.	.	.	.	16ff\JJ	.
.	.	.	.	16ff\LL	.
.	.	.	.	16gg\	.
.	.	.	.	16ff\	.
.	.	.	.	16gg\JJ	.
=72	=72	=72	=72	=72	=72
8c\L	1r	1r	1r	4ee\	.
8B\	.	.	.	.	.
8A\	.	.	.	8r	.
8G\J	.	.	.	8bb\	.
4C/	.	.	.	16ccc\LL	.
.	.	.	.	16ddd\	.
.	.	.	.	16bb\	.
.	.	.	.	16ccc\JJ	.
4r	.	.	.	16aa\LL	.
.	.	.	.	16bb\	.
.	.	.	.	16gg\	.
.	.	.	.	16aa\JJ	.
=73	=73	=73	=73	=73	=73
1r	1r	1r	1r	16ff\LL	.
.	.	.	.	16gg\	.
.	.	.	.	16ee\	.
.	.	.	.	16ff\JJ	.
.	.	.	.	16dd\LL	.
.	.	.	.	16ee\	.
.	.	.	.	16cc\	.
.	.	.	.	16dd\JJ	.
.	.	.	.	16b\LL	.
.	.	.	.	16cc\	.
.	.	.	.	16a\	.
.	.	.	.	16b\JJ	.
.	.	.	.	16g/LL	.
.	.	.	.	16a/	.
.	.	.	.	16f/	.
.	.	.	.	16g/JJ	.
=74	=74	=74	=74	=74	=74
8c\L	1r	1r	1r	4e/	.
8B\	.	.	.	.	.
8A\	.	.	.	8r	.
8G\J	.	.	.	8bb\	.
8A\L	.	.	.	8ccc\	.
8B\	.	.	.	4ff\	.
8c\	.	.	.	.	5 4
8C\J	.	.	.	8ee\	3
=75	=75	=75	=75	=75	=75
8G\L	1r	1r	1r	8eet\	6 4
8A\	.	.	.	4dd\	.
8B\	.	.	.	.	.
8G\J	.	.	.	8bb\	5 3
8A\L	.	.	.	8ccc\	.
8B\	.	.	.	4ff\	.
8c\	.	.	.	.	5 4
8C\J	.	.	.	8ee\	3
=76	=76	=76	=76	=76	=76
8G\L	1r	1r	1r	8eet\	6 4
8A\	.	.	.	4dd\	.
8B\	.	.	.	.	.
8G\J	.	.	.	8bb\	5 3
8E\L	.	.	.	8ccc\L	.
8C\	.	.	.	8cc\J	.
8G\	.	.	.	4ddT\	.
8GG\J	.	.	.	.	.
=77	=77	=77	=77	=77	=77
8C\L	8c\L	8gg\	8cc\	8cc\	.
8D\	8d\	4gg\	4b-\	4b-\	.
8E\	8e\	.	.	.	6 b5
8C\J	8c\J	8ee\	8b-\	8b-\	7
8F\L	8f\L	8cc\	8b-\	8b-\	6 b4
8G\	8g\	4cc\	4a/	4a/	.
8A\	8a\	.	.	.	.
8G\J	8g\J	8aa\	8f/	8f/	.
=78	=78	=78	=78	=78	=78
8F#\L	8f#\L	8aa\	8dd\	8dd\	6
8E\	8e\	4aa\	4cc\	4cc\	.
8F#\	8f#\	.	.	.	6 5
8D\J	8d\J	8ff#\	8cc\	8cc\	7
8G\L	8g\L	8dd\	8cc\	8cc\	6 4
8A\	8a\	4dd\	4b\	4b\	.
8B\	8b\	.	.	.	.
8A\J	8a\J	8bb\	8g/	8g/	.
=79	=79	=79	=79	=79	=79
8G#\L	8g#\L	8bb\	8ee\	8ee\	6
8F#\	8f#\	4bb\	4dd\	4dd\	.
8G#\	8g#\	.	.	.	6 5
8E\J	8e\J	8gg#\	8dd\	8dd\	.
8A\L	8a\L	8ee\	8dd\	8dd\	6 4
8B\	8b\	4ee\	4cc\	4cc\	.
8c\	8cc\	.	.	.	.
8B\J	8b\J	8ccc\	8a/	8a/	.
=80	=80	=80	=80	=80	=80
8A\L	8a\L	8ccc\	8ff\	8ff\	6
8G\	8g\	4ccc\	4ee\	4ee\	.
8A\	8a\	.	.	.	.
8F\J	8f\J	8aa\	8ee\	8ee\	.
8B\L	8b\L	8ff\	8ee\	8ee\	5 4
8c\	8cc\	4ff\	4dd\	4dd\	.
8d\	8dd\	.	.	.	.
8c\J	8cc\J	8ddd\	8b\	8b\	.
=81	=81	=81	=81	=81	=81
8B\L	8b\L	8ddd\	8gg\	8gg\	6
8A\	8a\	4ddd\	4ff\	4ff\	.
8B\	8b\	.	.	.	6 5
8G\J	8g\J	8bb\	8ff\	8ff\	.
8c\L	8cc\L	8gg\	8ff\	8ff\	6 4
8B\	8b\	4gg\	4ee\	4ee\	.
8c\	8cc\	.	.	.	.
8C\J	8c\J	8ee\	8gg\	8gg\	.
=82	=82	=82	=82	=82	=82
8C/L	8e/L	8gg\L	8ccc\L	8ccc\L	.
8F/	8A/	8e\J	8cc\J	8cc\J	.
8G/	8B/	8d/L	8b/L	8b/L	.
8GG/J	8G/J	8B/J	8d/J	8d/J	.
8C/L	4G/	8c/	8e/	8e/	.
8D/	.	4c/	4e/	4e/	.
8E/	4G/	.	.	.	.
8D/J	.	8e/	8g/	8g/	.
=83	=83	=83	=83	=83	=83
8C/L	8e/L	8g/L	8cc/L	8cc/L	.
8F/	8A/	8e/	8c/	8c/	.
8G/	8B/	8d/	8B/	8B/	.
8GG/J	8G/J	8b/J	8dd/J	8dd/J	.
2C/	2G/	2cc\	2cc\	2cc\	.
==|!	==|!	==|!	==|!	==|!	==|!
*-	*-	*-	*-	*-	*-
!!!CDT: 1678/3/4/-1741/7/28
!!!OCY: Italia
!!!ODE: Count Wenzeslaus von Morzin of Bohemia; Count Wenceslas of Morzin
!!!ODT: 1725///
!!!OPC: Venezia; Venice
!!!AGN: concerto
!!!AST: baroque
!!!AMT: simple quadruple
!!!PPR: Michel-Charles Le Ce`ne
!!!PC#: Le Cene No. 520
!!!PDT: 1725///
!!!PPP: Amsterdam
!!!SCT: RV 180
!!!SMA1: The cooperation of the following libraries is gratefully acknowledged:
!!!SMA2: Saechsische Landesbibliothek, Dresden; Biblioteca Nazionale
!!!SMA3: Universitaria, Turin; Henry Watson Music Library, Manchester.
!!!YOR: New York: Dover Publications, Inc. 1995
!!!AIN: cello cemba viola violn
!!!EEV: 1.0
!!!RDT: 1994/4/19/
!!!YER: 1996/10/31/
!!!YEP: Center for Computer Assisted Research in the Humanities
!!!YEN: United States of America
!!!EFL: 1/3
!!!ENC: Edmund Correia, Jr.
!!!EED: Eleanor Selfridge-Field
